assets/icons/24px/stroke/triangle-with-blocks-24px.svg

<svg width="24" height="24" viewBox="0 0 24 24" fill="none" xmlns="http://www.w3.org/2000/svg">
<path fill-rule="evenodd" clip-rule="evenodd" d="M10.3804 8.97408L6.88045 15.4741L5.11951 14.5259L8.61951 8.02588L10.3804 8.97408ZM17.1195 15.4741L13.6195 8.97408L15.3804 8.02588L18.8804 14.5259L17.1195 15.4741ZM8.99998 17.5H15V19.5H8.99998V17.5Z" fill="white"/>
<path fill-rule="evenodd" clip-rule="evenodd" d="M5.96802 14H6.03198C6.47064 14 6.84913 14 7.16238 14.0214C7.49221 14.0439 7.82212 14.0934 8.14805 14.2284C8.88314 14.5328 9.46716 15.1169 9.77164 15.852C9.90664 16.1779 9.95615 16.5078 9.97865 16.8376C10 17.1509 10 17.5294 10 17.968V18.032C10 18.4706 10 18.8491 9.97865 19.1624C9.95615 19.4922 9.90664 19.8221 9.77164 20.1481C9.46716 20.8831 8.88314 21.4672 8.14805 21.7716C7.82212 21.9066 7.49221 21.9561 7.16238 21.9787C6.84913 22 6.47064 22 6.03199 22H5.96801C5.52936 22 5.15088 22 4.83762 21.9787C4.50779 21.9561 4.17788 21.9066 3.85195 21.7716C3.11687 21.4672 2.53284 20.8831 2.22836 20.1481C2.09336 19.8221 2.04386 19.4922 2.02135 19.1624C1.99998 18.8491 1.99999 18.4706 2 18.032V17.968C1.99999 17.5294 1.99998 17.1509 2.02135 16.8376C2.04386 16.5078 2.09336 16.1779 2.22836 15.852C2.53284 15.1169 3.11687 14.5328 3.85195 14.2284C4.17788 14.0934 4.50779 14.0439 4.83762 14.0214C5.15088 14 5.52937 14 5.96802 14ZM4.97376 16.0167C4.74576 16.0323 4.65893 16.0589 4.61732 16.0761C4.37229 16.1776 4.17762 16.3723 4.07612 16.6173C4.05888 16.6589 4.03227 16.7458 4.01671 16.9738C4.00054 17.2107 4 17.5204 4 18C4 18.4796 4.00054 18.7893 4.01671 19.0262C4.03227 19.2542 4.05888 19.3411 4.07612 19.3827C4.17762 19.6277 4.37229 19.8224 4.61732 19.9239C4.65893 19.9411 4.74576 19.9677 4.97376 19.9833C5.21074 19.9995 5.52038 20 6 20C6.47963 20 6.78926 19.9995 7.02624 19.9833C7.25424 19.9677 7.34107 19.9411 7.38268 19.9239C7.62771 19.8224 7.82239 19.6277 7.92388 19.3827C7.94112 19.3411 7.96773 19.2542 7.98329 19.0262C7.99946 18.7893 8 18.4796 8 18C8 17.5204 7.99946 17.2107 7.98329 16.9738C7.96773 16.7458 7.94112 16.6589 7.92388 16.6173C7.82239 16.3723 7.62771 16.1776 7.38268 16.0761C7.34107 16.0589 7.25424 16.0323 7.02624 16.0167C6.78926 16.0005 6.47963 16 6 16C5.52038 16 5.21074 16.0005 4.97376 16.0167Z" fill="white"/>
<path fill-rule="evenodd" clip-rule="evenodd" d="M17.968 14H18.032C18.4706 14 18.8491 14 19.1624 14.0214C19.4922 14.0439 19.8221 14.0934 20.1481 14.2284C20.8831 14.5328 21.4672 15.1169 21.7716 15.852C21.9066 16.1779 21.9561 16.5078 21.9787 16.8376C22 17.1509 22 17.5294 22 17.968V18.032C22 18.4706 22 18.8491 21.9787 19.1624C21.9561 19.4922 21.9066 19.8221 21.7716 20.1481C21.4672 20.8831 20.8831 21.4672 20.1481 21.7716C19.8221 21.9066 19.4922 21.9561 19.1624 21.9787C18.8491 22 18.4706 22 18.032 22H17.968C17.5294 22 17.1509 22 16.8376 21.9787C16.5078 21.9561 16.1779 21.9066 15.852 21.7716C15.1169 21.4672 14.5328 20.8831 14.2284 20.1481C14.0934 19.8221 14.0439 19.4922 14.0214 19.1624C14 18.8491 14 18.4706 14 18.032V17.968C14 17.5294 14 17.1509 14.0214 16.8376C14.0439 16.5078 14.0934 16.1779 14.2284 15.852C14.5328 15.1169 15.1169 14.5328 15.852 14.2284C16.1779 14.0934 16.5078 14.0439 16.8376 14.0214C17.1509 14 17.5294 14 17.968 14ZM16.9738 16.0167C16.7458 16.0323 16.6589 16.0589 16.6173 16.0761C16.3723 16.1776 16.1776 16.3723 16.0761 16.6173C16.0589 16.6589 16.0323 16.7458 16.0167 16.9738C16.0005 17.2107 16 17.5204 16 18C16 18.4796 16.0005 18.7893 16.0167 19.0262C16.0323 19.2542 16.0589 19.3411 16.0761 19.3827C16.1776 19.6277 16.3723 19.8224 16.6173 19.9239C16.6589 19.9411 16.7458 19.9677 16.9738 19.9833C17.2107 19.9995 17.5204 20 18 20C18.4796 20 18.7893 19.9995 19.0262 19.9833C19.2542 19.9677 19.3411 19.9411 19.3827 19.9239C19.6277 19.8224 19.8224 19.6277 19.9239 19.3827C19.9411 19.3411 19.9677 19.2542 19.9833 19.0262C19.9995 18.7893 20 18.4796 20 18C20 17.5204 19.9995 17.2107 19.9833 16.9738C19.9677 16.7458 19.9411 16.6589 19.9239 16.6173C19.8224 16.3723 19.6277 16.1776 19.3827 16.0761C19.3411 16.0589 19.2542 16.0323 19.0262 16.0167C18.7893 16.0005 18.4796 16 18 16C17.5204 16 17.2107 16.0005 16.9738 16.0167Z" fill="white"/>
<path fill-rule="evenodd" clip-rule="evenodd" d="M11.968 2H12.032C12.4706 1.99999 12.8491 1.99998 13.1624 2.02135C13.4922 2.04386 13.8221 2.09336 14.1481 2.22836C14.8831 2.53284 15.4672 3.11687 15.7716 3.85195C15.9066 4.17788 15.9561 4.50779 15.9787 4.83762C16 5.15088 16 5.52936 16 5.96801V6.03199C16 6.47064 16 6.84913 15.9787 7.16238C15.9561 7.49221 15.9066 7.82212 15.7716 8.14805C15.4672 8.88314 14.8831 9.46716 14.1481 9.77164C13.8221 9.90664 13.4922 9.95615 13.1624 9.97865C12.8491 10 12.4706 10 12.032 10H11.968C11.5294 10 11.1509 10 10.8376 9.97865C10.5078 9.95615 10.1779 9.90664 9.85195 9.77164C9.11687 9.46716 8.53284 8.88314 8.22836 8.14805C8.09336 7.82212 8.04386 7.49221 8.02135 7.16238C7.99998 6.84913 7.99999 6.47064 8 6.03198V5.96802C7.99999 5.52937 7.99998 5.15088 8.02135 4.83762C8.04386 4.50779 8.09336 4.17788 8.22836 3.85195C8.53284 3.11687 9.11687 2.53284 9.85195 2.22836C10.1779 2.09336 10.5078 2.04386 10.8376 2.02135C11.1509 1.99998 11.5294 1.99999 11.968 2ZM10.9738 4.01671C10.7458 4.03227 10.6589 4.05888 10.6173 4.07612C10.3723 4.17762 10.1776 4.37229 10.0761 4.61732C10.0589 4.65893 10.0323 4.74576 10.0167 4.97376C10.0005 5.21074 10 5.52038 10 6C10 6.47963 10.0005 6.78926 10.0167 7.02624C10.0323 7.25424 10.0589 7.34107 10.0761 7.38268C10.1776 7.62771 10.3723 7.82239 10.6173 7.92388C10.6589 7.94112 10.7458 7.96773 10.9738 7.98329C11.2107 7.99946 11.5204 8 12 8C12.4796 8 12.7893 7.99946 13.0262 7.98329C13.2542 7.96773 13.3411 7.94112 13.3827 7.92388C13.6277 7.82239 13.8224 7.62771 13.9239 7.38268C13.9411 7.34107 13.9677 7.25424 13.9833 7.02624C13.9995 6.78926 14 6.47963 14 6C14 5.52038 13.9995 5.21074 13.9833 4.97376C13.9677 4.74576 13.9411 4.65893 13.9239 4.61732C13.8224 4.37229 13.6277 4.17762 13.3827 4.07612C13.3411 4.05888 13.2542 4.03227 13.0262 4.01671C12.7893 4.00054 12.4796 4 12 4C11.5204 4 11.2107 4.00054 10.9738 4.01671Z" fill="white"/>
</svg>

<svg width="24" height="24" fill="none" xmlns="http://www.w3.org/2000/svg"><path fill-rule="evenodd" clip-rule="evenodd" d="M10.38 8.974l-3.5 6.5-1.76-.948 3.5-6.5 1.76.948zm6.74 6.5l-3.5-6.5 1.76-.948 3.5 6.5-1.76.948zM9 17.5h6v2H9v-2z" fill="#fff"/><path fill-rule="evenodd" clip-rule="evenodd" d="M5.968 14h.064c.439 0 .817 0 1.13.021.33.023.66.072.986.207a3 3 0 0 1 1.624 1.624c.135.326.184.656.207.986.021.313.021.691.021 1.13v.064c0 .439 0 .817-.021 1.13a3.07 3.07 0 0 1-.207.986 3 3 0 0 1-1.624 1.624 3.072 3.072 0 0 1-.986.207C6.85 22 6.471 22 6.032 22h-.064c-.439 0-.817 0-1.13-.021a3.072 3.072 0 0 1-.986-.207 3 3 0 0 1-1.624-1.624 3.07 3.07 0 0 1-.207-.986C2 18.85 2 18.471 2 18.032v-.064c0-.439 0-.817.021-1.13.023-.33.072-.66.207-.986a3 3 0 0 1 1.624-1.624 3.07 3.07 0 0 1 .986-.207C5.15 14 5.529 14 5.968 14zm-.994 2.017c-.228.015-.315.042-.357.06a1 1 0 0 0-.54.54c-.018.042-.045.129-.06.357C4 17.21 4 17.52 4 18s0 .79.017 1.026c.015.228.042.315.06.357a1 1 0 0 0 .54.54c.042.018.129.045.357.06C5.21 20 5.52 20 6 20s.79 0 1.026-.017c.228-.015.315-.042.357-.06a1 1 0 0 0 .54-.54c.018-.042.045-.129.06-.357C8 18.79 8 18.48 8 18s0-.79-.017-1.026c-.015-.228-.042-.315-.06-.357a1 1 0 0 0-.54-.54c-.042-.018-.129-.045-.357-.06A16.888 16.888 0 0 0 6 16c-.48 0-.79 0-1.026.017zM17.968 14h.064c.439 0 .817 0 1.13.021.33.023.66.072.986.207a3 3 0 0 1 1.624 1.624c.135.326.184.656.207.986.021.313.021.691.021 1.13v.064c0 .439 0 .817-.021 1.13-.023.33-.072.66-.207.986a3 3 0 0 1-1.624 1.624 3.073 3.073 0 0 1-.986.207c-.313.021-.691.021-1.13.021h-.064c-.439 0-.817 0-1.13-.021a3.072 3.072 0 0 1-.986-.207 3 3 0 0 1-1.624-1.624 3.07 3.07 0 0 1-.207-.986C14 18.85 14 18.471 14 18.032v-.064c0-.439 0-.817.021-1.13.023-.33.072-.66.207-.986a3 3 0 0 1 1.624-1.624c.326-.135.656-.184.986-.207.313-.021.691-.021 1.13-.021zm-.994 2.017c-.228.015-.315.042-.357.06a1 1 0 0 0-.54.54c-.018.042-.045.129-.06.357C16 17.21 16 17.52 16 18s0 .79.017 1.026c.015.228.042.315.06.357a1 1 0 0 0 .54.54c.042.018.129.045.357.06C17.21 20 17.52 20 18 20s.79 0 1.026-.017c.228-.015.315-.042.357-.06a1 1 0 0 0 .54-.54c.018-.042.045-.129.06-.357C20 18.79 20 18.48 20 18s0-.79-.017-1.026c-.015-.228-.042-.315-.06-.357a1 1 0 0 0-.54-.54c-.042-.018-.129-.045-.357-.06A16.885 16.885 0 0 0 18 16c-.48 0-.79 0-1.026.017zM11.968 2h.064c.439 0 .817 0 1.13.021.33.023.66.072.986.207a3 3 0 0 1 1.624 1.624c.135.326.184.656.207.986.021.313.021.691.021 1.13v.064c0 .439 0 .817-.021 1.13-.023.33-.072.66-.207.986a3 3 0 0 1-1.624 1.624 3.07 3.07 0 0 1-.986.207c-.313.021-.691.021-1.13.021h-.064c-.439 0-.817 0-1.13-.021a3.07 3.07 0 0 1-.986-.207 3 3 0 0 1-1.624-1.624 3.07 3.07 0 0 1-.207-.986C8 6.85 8 6.471 8 6.032v-.064c0-.439 0-.817.021-1.13.023-.33.072-.66.207-.986a3 3 0 0 1 1.624-1.624 3.07 3.07 0 0 1 .986-.207C11.15 2 11.529 2 11.968 2zm-.994 2.017c-.228.015-.315.042-.357.06a1 1 0 0 0-.54.54c-.018.042-.045.129-.06.357C10 5.21 10 5.52 10 6s0 .79.017 1.026c.015.228.042.315.06.357a1 1 0 0 0 .54.54c.042.018.129.045.357.06C11.21 8 11.52 8 12 8s.79 0 1.026-.017c.228-.015.315-.042.357-.06a1 1 0 0 0 .54-.54c.018-.042.045-.129.06-.357C14 6.79 14 6.48 14 6s0-.79-.017-1.026c-.015-.228-.042-.315-.06-.357a1 1 0 0 0-.54-.54c-.042-.018-.129-.045-.357-.06A16.908 16.908 0 0 0 12 4c-.48 0-.79 0-1.026.017z" fill="#fff"/></svg>
